wp-content/themes/everta/images/application-logo.svg

<svg width="226" height="226" viewBox="0 0 226 226" fill="none" xmlns="http://www.w3.org/2000/svg">
<path d="M83.5603 111.72C83.5603 122.1 83.5603 132.48 83.5603 142.85C83.5603 143.81 83.5603 144.77 83.6503 145.72C83.9303 148.74 85.6102 150.49 88.5902 150.62C91.5302 150.75 94.4802 150.76 97.4202 150.64C100.48 150.52 102.26 148.68 102.53 145.63C102.6 144.83 102.6 144.01 102.6 143.2C102.58 140.02 102.58 139.96 99.5103 139.59C97.8703 139.39 97.0903 138.47 96.5602 137.04C93.7402 129.49 91.9403 121.68 91.0403 113.69C89.3503 98.7402 91.2903 84.2002 96.3303 70.0502C97.3903 67.0602 97.8002 66.7402 100.95 66.7402C112.8 66.7402 124.65 66.7402 136.5 66.7402C139.8 66.7402 140.13 66.9802 141.3 70.1302C145.34 81.0102 147.27 92.3102 147.15 103.86C147.03 115.09 145.19 126.1 141.18 136.69C140.38 138.81 139.11 139.73 136.91 139.66C134.7 139.59 132.49 139.69 130.29 139.64C128.64 139.6 127.9 140.19 127.91 141.95C127.97 149.52 127.97 157.1 127.91 164.67C127.9 166.39 128.51 167.05 130.23 166.99C132.88 166.9 135.53 166.97 138.18 166.99C139.28 167 140.4 167.27 140.44 168.57C140.48 170.02 139.31 170.3 138.11 170.3C125.23 170.3 112.35 170.3 99.4703 170.3C98.3803 170.3 97.2703 170.11 97.2503 168.73C97.2303 167.24 98.4203 167.02 99.5803 167C102.16 166.96 104.73 166.93 107.31 166.99C108.88 167.02 109.57 166.44 109.57 164.8C109.53 157.07 109.54 149.34 109.56 141.62C109.56 140.39 109.21 139.65 107.81 139.68C106.51 139.71 106.25 140.47 106.22 141.56C106.18 143.32 106.34 145.08 105.96 146.84C105.09 150.79 102.39 153.63 98.4003 154.17C94.9003 154.64 91.3302 154.7 87.8402 154.14C82.7702 153.32 80.0103 149.97 79.9903 144.78C79.9503 129.84 79.9202 114.9 80.0202 99.9602C80.0402 97.3302 79.5303 95.1502 77.3503 93.6002C72.1103 89.8802 70.1603 84.9202 71.0503 78.5502C71.4503 75.6602 71.0902 72.6702 71.1302 69.7302C71.1702 67.2902 72.0503 66.6202 74.4803 67.0402C79.3503 67.8802 82.6603 71.2902 83.2903 76.1902C83.4703 77.5702 83.5503 78.9702 83.5503 80.3702C83.5703 90.8202 83.5603 101.27 83.5603 111.72ZM118.66 136.07C124.25 136.07 129.84 136.03 135.43 136.1C137.07 136.12 137.97 135.58 138.5 133.96C145.28 113.45 145.31 92.9602 138.5 72.4502C137.97 70.8402 137.07 70.3102 135.43 70.3202C124.47 70.3802 113.51 70.4002 102.55 70.3202C100.64 70.3102 99.6803 70.9002 99.0602 72.7902C96.8602 79.4502 95.2603 86.2102 94.6203 93.2102C93.3403 107.15 94.5403 120.8 99.1903 134.09C99.7203 135.6 100.55 136.12 102.1 136.1C107.62 136.03 113.13 136.07 118.65 136.07H118.66ZM113.01 153.24C113.01 153.24 113.11 153.24 113.16 153.24C113.16 157.13 113.19 161.02 113.14 164.91C113.12 166.41 113.71 167.03 115.23 166.98C117.65 166.9 120.08 166.9 122.5 166.94C123.84 166.96 124.56 166.53 124.56 165.06C124.53 157.2 124.54 149.35 124.56 141.49C124.56 140.33 124.13 139.67 122.9 139.68C120.11 139.68 117.32 139.67 114.53 139.7C113.33 139.71 112.95 140.37 112.98 141.57C113.06 145.46 113.01 149.35 113.01 153.24ZM79.9303 90.8802C79.9103 85.5402 80.2203 80.6602 79.7403 75.7902C79.5503 73.8502 78.2502 72.4902 76.5902 71.5102C75.2102 70.7002 74.4202 70.8202 74.4502 72.7002C74.5102 75.6302 74.8102 78.6202 74.3802 81.4902C73.7102 86.0802 76.7603 88.1302 79.9203 90.8802H79.9303Z" fill="black"/>
<path d="M115.11 119.61C113.73 119.56 113.18 118.06 114.17 116.58C116.01 113.83 118.01 111.18 119.87 108.45C120.54 107.46 122.07 106.49 121.44 105.34C120.92 104.38 119.27 105.02 118.12 104.98C116.28 104.91 114.44 105.01 112.6 104.93C110.35 104.84 109.56 103.57 110.8 101.76C114 97.0803 117.32 92.5002 120.63 87.9002C121.29 86.9902 122.24 86.4402 123.29 87.2202C124.36 88.0202 123.98 89.0903 123.37 89.9803C121.4 92.8203 119.32 95.5902 117.38 98.4502C116.79 99.3102 115.39 100.11 115.96 101.18C116.43 102.08 117.86 101.51 118.85 101.54C120.84 101.61 122.82 101.53 124.81 101.57C127.37 101.63 128.11 102.85 126.7 104.9C123.56 109.44 120.32 113.91 117.1 118.39C116.62 119.06 116.01 119.6 115.11 119.62V119.61Z" fill="black"/>
</svg>

<?xml version="1.0" encoding="UTF-8"?>
<svg id="Layer_1" xmlns="http://www.w3.org/2000/svg" viewBox="0 0 225.93 225.93">
  <path d="M112.34,1.33c61.35,0,111.84,49.39,111.64,111.9-.2,62.06-50.14,111.47-112.1,111.19C49.48,224.15.66,173.39.86,112.1,1.05,51.28,51.18,1.33,112.34,1.33ZM2.85,112.86c-.05,59.84,48,109.59,109.52,109.62,61.27.03,109.59-48.97,109.68-109.47.09-61.88-50.03-109.74-109.63-109.73C51.94,3.29,2.88,52.31,2.85,112.86Z"/>
  <path d="M83.56,111.72c0,10.38,0,20.76,0,31.13,0,.96,0,1.92.09,2.87.28,3.02,1.96,4.77,4.94,4.9,2.94.13,5.89.14,8.83.02,3.06-.12,4.84-1.96,5.11-5.01.07-.8.07-1.62.07-2.43-.02-3.18-.02-3.24-3.09-3.61-1.64-.2-2.42-1.12-2.95-2.55-2.82-7.55-4.62-15.36-5.52-23.35-1.69-14.95.25-29.49,5.29-43.64,1.06-2.99,1.47-3.31,4.62-3.31,11.85,0,23.7,0,35.55,0,3.3,0,3.63.24,4.8,3.39,4.04,10.88,5.97,22.18,5.85,33.73-.12,11.23-1.96,22.24-5.97,32.83-.8,2.12-2.07,3.04-4.27,2.97-2.21-.07-4.42.03-6.62-.02-1.65-.04-2.39.55-2.38,2.31.06,7.57.06,15.15,0,22.72-.01,1.72.6,2.38,2.32,2.32,2.65-.09,5.3-.02,7.95,0,1.1.01,2.22.28,2.26,1.58.04,1.45-1.13,1.73-2.33,1.73-12.88,0-25.76,0-38.64,0-1.09,0-2.2-.19-2.22-1.57-.02-1.49,1.17-1.71,2.33-1.73,2.58-.04,5.15-.07,7.73-.01,1.57.03,2.26-.55,2.26-2.19-.04-7.73-.03-15.46-.01-23.18,0-1.23-.35-1.97-1.75-1.94-1.3.03-1.56.79-1.59,1.88-.04,1.76.12,3.52-.26,5.28-.87,3.95-3.57,6.79-7.56,7.33-3.5.47-7.07.53-10.56-.03-5.07-.82-7.83-4.17-7.85-9.36-.04-14.94-.07-29.88.03-44.82.02-2.63-.49-4.81-2.67-6.36-5.24-3.72-7.19-8.68-6.3-15.05.4-2.89.04-5.88.08-8.82.04-2.44.92-3.11,3.35-2.69,4.87.84,8.18,4.25,8.81,9.15.18,1.38.26,2.78.26,4.18.02,10.45.01,20.9.01,31.35ZM118.66,136.07c5.59,0,11.18-.04,16.77.03,1.64.02,2.54-.52,3.07-2.14,6.78-20.51,6.81-41,0-61.51-.53-1.61-1.43-2.14-3.07-2.13-10.96.06-21.92.08-32.88,0-1.91-.01-2.87.58-3.49,2.47-2.2,6.66-3.8,13.42-4.44,20.42-1.28,13.94-.08,27.59,4.57,40.88.53,1.51,1.36,2.03,2.91,2.01,5.52-.07,11.03-.03,16.55-.03ZM113.01,153.24s.1,0,.15,0c0,3.89.03,7.78-.02,11.67-.02,1.5.57,2.12,2.09,2.07,2.42-.08,4.85-.08,7.27-.04,1.34.02,2.06-.41,2.06-1.88-.03-7.86-.02-15.71,0-23.57,0-1.16-.43-1.82-1.66-1.81-2.79,0-5.58-.01-8.37.02-1.2.01-1.58.67-1.55,1.87.08,3.89.03,7.78.03,11.67ZM79.93,90.88c-.02-5.34.29-10.22-.19-15.09-.19-1.94-1.49-3.3-3.15-4.28-1.38-.81-2.17-.69-2.14,1.19.06,2.93.36,5.92-.07,8.79-.67,4.59,2.38,6.64,5.54,9.39Z"/>
  <path d="M115.11,119.61c-1.38-.05-1.93-1.55-.94-3.03,1.84-2.75,3.84-5.4,5.7-8.13.67-.99,2.2-1.96,1.57-3.11-.52-.96-2.17-.32-3.32-.36-1.84-.07-3.68.03-5.52-.05-2.25-.09-3.04-1.36-1.8-3.17,3.2-4.68,6.52-9.26,9.83-13.86.66-.91,1.61-1.46,2.66-.68,1.07.8.69,1.87.08,2.76-1.97,2.84-4.05,5.61-5.99,8.47-.59.86-1.99,1.66-1.42,2.73.47.9,1.9.33,2.89.36,1.99.07,3.97-.01,5.96.03,2.56.06,3.3,1.28,1.89,3.33-3.14,4.54-6.38,9.01-9.6,13.49-.48.67-1.09,1.21-1.99,1.23Z"/>
</svg>
